img/company-logo-black.svg

<svg width="238" height="54" viewBox="0 0 238 54" fill="none" xmlns="http://www.w3.org/2000/svg">
<path fill-rule="evenodd" clip-rule="evenodd" d="M9.84918 32.3671L7.52349 36.7375L7.52309 51.4193H-0.000822647L0.00047347 3.61813H7.52439L7.52382 24.4458L17.3739 3.61813H24.8978L14.4321 24.9238L24.8965 51.4193H17.1674L9.84918 32.3671ZM35.5186 40.425C35.5186 42.155 35.872 43.3727 36.5787 44.0784C37.2855 44.784 38.2317 45.1368 39.4173 45.1368C40.6029 45.1368 41.5491 44.784 42.2559 44.0784C42.9627 43.3727 43.3161 42.155 43.3162 40.425L43.3169 14.6124C43.3169 12.8824 42.9635 11.6646 42.2568 10.959C41.55 10.2533 40.6038 9.90053 39.4182 9.90053C38.2326 9.90053 37.2864 10.2533 36.5796 10.959C35.8728 11.6646 35.5194 12.8824 35.5193 14.6124L35.5186 40.425ZM27.9949 15.0905C27.995 11.2208 28.9754 8.25037 30.9363 6.17898C32.8971 4.10758 35.7243 3.0719 39.4178 3.0719C43.1114 3.0719 45.9385 4.10758 47.8993 6.17898C49.86 8.25037 50.8403 11.2208 50.8402 15.0905L50.8395 39.9471C50.8394 43.8167 49.859 46.7872 47.8981 48.8586C45.9373 50.93 43.1101 51.9657 39.4165 51.9657C35.7229 51.9657 32.8958 50.93 30.9351 48.8586C28.9744 46.7872 27.9941 43.8167 27.9942 39.9471L27.9949 15.0905ZM63.1718 16.7977L63.1708 51.4195H56.3993L56.4006 3.61827H65.8397L73.568 32.2307L73.5688 3.61827H80.2719L80.2706 51.4195H72.5415L63.1718 16.7977ZM85.4897 15.0905C85.4898 11.2209 86.4133 8.25039 88.2601 6.179C90.107 4.1076 92.8771 3.07192 96.5707 3.07192C100.264 3.07192 103.034 4.1076 104.881 6.179C106.728 8.25039 107.651 11.2209 107.651 15.0905L107.651 16.5928H100.537L100.538 14.6125C100.538 12.8825 100.207 11.6648 99.5459 10.9591C98.8847 10.2535 97.9613 9.90066 96.7757 9.90066C95.5901 9.90066 94.6667 10.2535 94.0055 10.9591C93.3443 11.6648 93.0137 12.8825 93.0136 14.6125C93.0136 16.2514 93.3783 17.6968 94.1079 18.9487C94.8375 20.2007 95.7494 21.3843 96.8438 22.4997C97.9381 23.6151 99.1123 24.7304 100.366 25.8458C101.62 26.9611 102.794 28.1789 103.889 29.4991C104.983 30.8194 105.895 32.3217 106.625 34.0061C107.354 35.6906 107.719 37.6709 107.719 39.9471C107.719 43.8168 106.772 46.7872 104.88 48.8586C102.988 50.93 100.195 51.9657 96.501 51.9657C92.8074 51.9657 90.0145 50.93 88.1222 48.8586C86.2298 46.7872 85.2837 43.8168 85.2838 39.9471L85.2839 37.0108H92.3974L92.3973 40.4251C92.3973 42.1551 92.7507 43.3615 93.4574 44.0444C94.1642 44.7272 95.1104 45.0687 96.296 45.0687C97.4816 45.0687 98.4278 44.7272 99.1346 44.0444C99.8414 43.3615 100.195 42.1551 100.195 40.4251C100.195 38.7862 99.8302 37.3408 99.1006 36.0889C98.371 34.8369 97.4591 33.6533 96.3647 32.5379C95.2704 31.4226 94.0962 30.3072 92.8422 29.1919C91.5883 28.0765 90.4141 26.8587 89.3198 25.5385C88.2254 24.2183 87.3135 22.7159 86.5839 21.0315C85.8544 19.3471 85.4897 17.3668 85.4897 15.0905ZM110.612 3.61811H133.868L133.868 10.4468H126.002L126.001 51.4193H118.477L118.478 10.4468H110.612L110.612 3.61811ZM153.653 51.4193C153.562 51.1006 153.47 50.8047 153.379 50.5315C153.288 50.2584 153.208 49.917 153.14 49.5072C153.072 49.0975 153.026 48.574 153.003 47.9366C152.98 47.2993 152.969 46.5026 152.969 45.5466L152.969 38.0349C152.969 35.8042 152.582 34.2336 151.807 33.3231C151.031 32.4126 149.777 31.9574 148.045 31.9574H145.445L145.445 51.4193H137.921L137.922 3.61809H149.277C153.198 3.61809 156.037 4.52858 157.792 6.34958C159.548 8.17059 160.425 10.9248 160.425 14.6124L160.425 18.3682C160.425 23.2849 158.784 26.5171 155.5 28.065C157.415 28.8389 158.726 30.1022 159.433 31.8549C160.14 33.6077 160.493 35.7359 160.493 38.2398L160.493 45.6148C160.493 46.7985 160.538 47.8342 160.63 48.7219C160.721 49.6097 160.949 50.5088 161.314 51.4193H153.653ZM145.447 10.447L145.446 25.1288H148.387C149.801 25.1288 150.907 24.7646 151.705 24.0362C152.503 23.3078 152.902 21.9875 152.902 20.0755L152.902 15.3637C152.902 13.6337 152.594 12.3818 151.979 11.6079C151.363 10.8339 150.394 10.447 149.072 10.447H145.447ZM173.373 3.61825L173.372 40.4935C173.372 42.2234 173.725 43.4298 174.432 44.1127C175.139 44.7956 176.085 45.137 177.271 45.137C178.456 45.137 179.402 44.7956 180.109 44.1127C180.816 43.4298 181.169 42.2234 181.169 40.4935L181.17 3.61825H188.284L188.283 40.0154C188.283 43.8851 187.337 46.8555 185.444 48.9269C183.552 50.9983 180.759 52.034 177.065 52.034C173.372 52.034 170.579 50.9983 168.686 48.9269C166.794 46.8555 165.848 43.8851 165.848 40.0154L165.849 3.61825H173.373ZM214.744 3.61826H238L238 10.447H230.134L230.133 51.4195H222.609L222.61 10.447H214.744L214.744 3.61826Z" fill="#1A1A1A"/>
<path fill-rule="evenodd" clip-rule="evenodd" d="M188.953 27L208.497 0L208.495 54L188.953 27Z" fill="#1A1A1A"/>
</svg>

<svg xmlns="http://www.w3.org/2000/svg" fill="none" viewBox="0 0 238 54"><path fill="#1A1A1A" fill-rule="evenodd" d="m9.85 32.367-2.327 4.37V51.42H0L0 3.62h7.524v20.827l9.85-20.828h7.524L14.432 24.924l10.464 26.495h-7.729L9.85 32.367zm25.669 8.058c0 1.73.353 2.948 1.06 3.653.706.706 1.653 1.059 2.838 1.059 1.186 0 2.132-.353 2.839-1.059.707-.705 1.06-1.923 1.06-3.653V14.612c0-1.73-.352-2.947-1.06-3.653-.706-.706-1.652-1.058-2.838-1.058-1.185 0-2.132.352-2.838 1.058-.707.706-1.06 1.923-1.06 3.653l-.001 25.813zm-7.524-25.334c0-3.87.98-6.84 2.941-8.912 1.961-2.071 4.788-3.107 8.482-3.107 3.693 0 6.52 1.036 8.481 3.107 1.961 2.071 2.941 5.042 2.941 8.912v24.856c0 3.87-.981 6.84-2.942 8.912-1.96 2.071-4.788 3.107-8.482 3.107-3.693 0-6.52-1.036-8.48-3.107-1.962-2.072-2.942-5.042-2.942-8.912V15.09zm35.177 1.707-.001 34.621h-6.772l.002-47.8h9.439l7.728 28.612V3.618h6.704L80.27 51.42h-7.73l-9.37-34.622zM85.49 15.09c0-3.87.923-6.84 2.77-8.912 1.847-2.071 4.617-3.107 8.31-3.107 3.694 0 6.464 1.036 8.311 3.107 1.847 2.071 2.77 5.042 2.77 8.912v1.502h-7.114l.001-1.98c0-1.73-.331-2.948-.992-3.654-.661-.705-1.585-1.058-2.77-1.058-1.186 0-2.11.353-2.77 1.058-.662.706-.992 1.924-.992 3.654 0 1.638.364 3.084 1.094 4.336a18.053 18.053 0 0 0 2.736 3.55 71.659 71.659 0 0 0 3.522 3.347 33.497 33.497 0 0 1 3.523 3.653c1.094 1.32 2.006 2.823 2.736 4.507.729 1.685 1.094 3.665 1.094 5.941 0 3.87-.947 6.84-2.839 8.912-1.892 2.071-4.685 3.107-8.379 3.107s-6.487-1.036-8.379-3.107c-1.892-2.072-2.838-5.042-2.838-8.912v-2.936h7.113v3.414c0 1.73.354 2.937 1.06 3.62.707.682 1.653 1.024 2.839 1.024s2.132-.342 2.839-1.025c.706-.682 1.06-1.889 1.06-3.619 0-1.639-.365-3.084-1.094-4.336a18.053 18.053 0 0 0-2.736-3.551 71.533 71.533 0 0 0-3.523-3.346 33.446 33.446 0 0 1-3.522-3.654c-1.095-1.32-2.006-2.822-2.736-4.506-.73-1.685-1.094-3.665-1.094-5.941zm25.122-11.473h23.256v6.829h-7.866l-.001 40.972h-7.524l.001-40.972h-7.866V3.618zm43.041 47.801a21.421 21.421 0 0 0-.274-.887 6.85 6.85 0 0 1-.239-1.025 12.69 12.69 0 0 1-.137-1.57 68.489 68.489 0 0 1-.034-2.39v-7.512c0-2.23-.387-3.801-1.162-4.712-.776-.91-2.03-1.366-3.762-1.366h-2.6V51.42h-7.524l.001-47.8h11.355c3.921 0 6.76.91 8.515 2.73 1.756 1.822 2.633 4.576 2.633 8.263v3.756c0 4.917-1.641 8.15-4.925 9.697 1.915.774 3.226 2.037 3.933 3.79.707 1.753 1.06 3.88 1.06 6.385v7.375c0 1.183.045 2.22.137 3.107a9.97 9.97 0 0 0 .684 2.697h-7.661zm-8.206-40.972-.001 14.682h2.941c1.414 0 2.52-.364 3.318-1.093.798-.728 1.197-2.049 1.197-3.96v-4.712c0-1.73-.308-2.982-.923-3.756-.616-.774-1.585-1.161-2.907-1.161h-3.625zm27.926-6.829-.001 36.875c0 1.73.353 2.937 1.06 3.62.707.683 1.653 1.024 2.839 1.024 1.185 0 2.131-.341 2.838-1.024.707-.683 1.06-1.89 1.06-3.62l.001-36.875h7.114l-.001 36.397c0 3.87-.946 6.84-2.839 8.912-1.892 2.071-4.685 3.107-8.379 3.107-3.693 0-6.486-1.036-8.379-3.107-1.892-2.072-2.838-5.042-2.838-8.912l.001-36.397h7.524zm41.371 0H238v6.829h-7.866l-.001 40.972h-7.524l.001-40.972h-7.866V3.618zM188.953 27l19.544-27-.002 54-19.542-27z" clip-rule="evenodd"/></svg>
